assets/images/icons/src/fast-forward.svg

<?xml version="1.0" encoding="utf-8"?>
<!-- Generated by IcoMoon.io -->
<!DOCTYPE svg PUBLIC "-//W3C//DTD SVG 1.1//EN" "http://www.w3.org/Graphics/SVG/1.1/DTD/svg11.dtd">
<svg version="1.1" xmlns="http://www.w3.org/2000/svg" xmlns:xlink="http://www.w3.org/1999/xlink" width="14" height="14" viewBox="0 0 14 14">
<path fill="#444444" d="M0.352 12.898q-0.148 0.148-0.25 0.102t-0.102-0.25v-11.5q0-0.203 0.102-0.25t0.25 0.102l5.547 5.547q0.062 0.062 0.102 0.148v-5.547q0-0.203 0.102-0.25t0.25 0.102l5.547 5.547q0.062 0.062 0.102 0.148v-5.297q0-0.203 0.148-0.352t0.352-0.148h1q0.203 0 0.352 0.148t0.148 0.352v11q0 0.203-0.148 0.352t-0.352 0.148h-1q-0.203 0-0.352-0.148t-0.148-0.352v-5.297q-0.039 0.078-0.102 0.148l-5.547 5.547q-0.148 0.148-0.25 0.102t-0.102-0.25v-5.547q-0.039 0.078-0.102 0.148z"></path>
</svg>

<svg xmlns="http://www.w3.org/2000/svg" width="14" height="14" viewBox="0 0 14 14"><path fill="#444" d="M.352 12.898q-.148.148-.25.102T0 12.75V1.25Q0 1.047.102 1t.25.102l5.547 5.547q.062.062.102.148V1.25q0-.203.102-.25t.25.102L11.9 6.649q.062.062.102.148V1.5q0-.203.148-.352T12.502 1h1q.203 0 .352.148t.148.352v11q0 .203-.148.352t-.352.148h-1q-.203 0-.352-.148t-.148-.352V7.203q-.039.078-.102.148l-5.547 5.547q-.148.148-.25.102t-.102-.25V7.203q-.039.078-.102.148z"/></svg>
